X: 1116
T: Hüseynîaşîrân Seyir
C: Şefik Gürmeriç
O: Turkey
F: http://compmusic.upf.edu/node/140
N: huseyniasiran--seyir--sofyan--1--sefik_gurmeric
N: makam= huseyniasiran
N: form= seyir
N: usul= sofyan = 4/4
M: 4/4
L: 1/16
K: C _1/4B ^f  
Q: 1/4=60
%%MIDI tuningsystem comma53
e2d2 ^c2d2 e8  | z2^3/4fe f2g2 agfe d4  | \
w:   |   | 
z2g2 ^3/4f2g2 ac'_2/4ba g2fe  | 
w:   | 
e6d2 dccd e4  | z4 d2e2 e4 a4  | g2=f2 e2d2 edc_2/4B c4  | 
w:   |   |   | 
z4 _2/4B2c2 d4 e4  | d4 c2_2/4B2 A8  | \
w:   |   | 
z4 A2_7/8B2 A4 B4  | ^c2de d2c2 _7/8B2A2 G2^3/4F2  | 
w:   |   | 
G4 ^3/4F2G2 A4 =B2A2  | A2G2 G2^3/4F2 F3E D4  | \
w:   |   | 
z4 E2^3/4F2 E4 F4  | G2A=B A2G2 G2^3/4F2 F2E2  | 
w:   |   | 
E8 D4 G2^3/4FE  | E16  | |


